X:1
T: The Gypsy Round
N:
C:Eric Leber
S:
A:
O:
R:
M:3/4
K:Am
I:speed 150
%W: A1
% voice 1 (1 lines, 21 notes)
K:Am
M:3/4
L:1/16
e6 c2 A4 |A4 c4 e4 |d2 e2 d2 e2 d2 e2 |^f6 e2 d4 |g6 ^f2 e4 |^f4 d4 B4 |
%W:
% voice 1 (1 lines, 20 notes)
e6 d2 c4 |d4 B4 G4 |A2 B2 A2 B2 c2 d2 |e6 ^f2 g2 e2 |a6 g2 ^f4 |e12 |
%W: A2
% voice 1 (1 lines, 21 notes)
e6 c2 A4 |A4 c4 e4 |d2 e2 d2 e2 d2 e2 |^f6 e2 d4 |g6 ^f2 e4 |^f4 d4 B4 |
%W:
% voice 1 (1 lines, 20 notes)
e6 d2 c4 |d4 B4 G4 |A2 B2 A2 B2 c2 d2 |e6 ^f2 g2 e2 |a6 g2 ^f4 |e12 |
%W: B1
% voice 1 (1 lines, 25 notes)
e4 a4 b4 |g6 ^f2 e4 |d4 e4 B4 |c6 B2 A4 |G2 A2 B2 c2 d2 B2 |e6 d2 c4 |d4 B4 c4 |A12 |
%W: B2
% voice 1 (1 lines, 25 notes)
e4 a4 b4 |g6 ^f2 e4 |d4 e4 B4 |c6 B2 A4 |G2 A2 B2 c2 d2 B2 |e6 d2 c4 |d4 B4 c4 |A12 ||
